X:194
U: ~ = !turn!
%%topmargin 3cm
T:Slane
B:Traditional Irish Fiddle Tunes. Randy Miller and Jack Perron.
Z:Transcribed by Ralph Palmer
R:Waltz
L:1/4
M:3/4
K:Gphr
E E F/2E/2 | C B, C | E E F | G3 | F F F | F G B | c B G | B3 |
c c/2d/2 e/2d/2 | c B G | B E D | C2 B, | E G B | c/2B/2 G E/2G/2 | F E E | E3 |]
